X:0806
T:Piper's Maggot.
S:Aird v5 p2
M:9/8
L:1/8
Q:3/8=112
I: :: :|
Z:Jack Campin * www.campin.me.uk * 2009
K:G
c| B3      GBG dBG|(B/c/dB) gdB (efg)|B3     GBG dBG|(A/B/cA) fAB c2:|
c|(B/c/dB) gdB gdB|(B/c/dc) gdB  efg |B/c/dB gdB gdB|(A/B/cA) fAB c2:|
<end>
<start>
